!!!!SEGMENT: pl-wn--bj-muz-8812-iii--003_zelenski-wladyslaw--sonate-op-20-scherzo.krn
!!!cenid: 18xx:3693
!!!COM: Żeleński, Władysław
!!!COM-rismID: pe41024455
!!!CDT: 1837/07/06-1921/01/23
!!!CNT: Polish
!!!OPR: Sonate op. 20
!!!OTL: Scherzo
!!!OMV: 003
!!!PDT:
!!!AGN:
!!!SMS-siglum: PL-Wn
!!!SMS-shelfmark: BJ Muz. 8812 III
!!!SMS-shelfwork: M
!!!SMS-variant:
!!!SMS-altvar:
!!!NIFC-rismSourceID:
!!!NIFC-islandoraID:
!!!URL-pdf-islandora:
!!!URL-scan: https://polona.pl/item/sonate-fur-pianoforte-op-20,ODQ3MjQzNDE/0/#item @EN{Scan on Polona} @PL{Skany w portalu Polona}
!!!ONB-nifc: UWAGA: części Sonaty: 1. Allegro con moto, 2. Adagio, 3. Scherzo, 4. Allegro moderato
!!!AIN: 1 forte
!!!key: a
**kern	**fing	**kern	**fing	**dynam
*part1	*	*part1	*	*part1
*staff2	*	*staff1	*	*
*I"Pianoforte	*	*I"Pianoforte	*	*
*Iforte	*	*Iforte	*	*
*ICklav	*	*ICklav	*	*
*IGsolo	*	*IGsolo	*	*
*>[A,B,A,B,C,D,D1,D,D2,E,E,F,F1,F,F2,B,A,B,C,D,D1,D,D2,G]	*>[A,B,A,B,C,D,D1,D,D2,E,E,F,F1,F,F2,B,A,B,C,D,D1,D,D2,G]	*>[A,B,A,B,C,D,D1,D,D2,E,E,F,F1,F,F2,B,A,B,C,D,D1,D,D2,G]	*>[A,B,A,B,C,D,D1,D,D2,E,E,F,F1,F,F2,B,A,B,C,D,D1,D,D2,G]	*>[A,B,A,B,C,D,D1,D,D2,E,E,F,F1,F,F2,B,A,B,C,D,D1,D,D2,G]
*>A	*>A	*>A	*>A	*>A
*clefF4	*	*clefG2	*	*
*k[]	*	*k[]	*	*
*a:	*	*a:	*	*
*M3/4	*	*M3/4	*	*
*xywh-16:750,445,2381,559	*	*xywh-16:750,445,2381,559	*	*
!	!	!LO:TX:a:t=Vivace. [half-dot]=112.	!	!
(4e\	.	(4ee\	.	p
!LO:TX:b:t=[segno]:problem=znak segno na kresce taktowej	!	!LO:TX:a:t=[segno]:problem=znak segno na kresce taktowej	!	!
=1	=1	=1	=1	=1
(<8qf/	.	(<8qff/	.	.
4e\)	.	4ee\)	.	.
4d#X\	.	4dd#X\	.	.
4e\	.	4ee\	.	.
=2	=2	=2	=2	=2
2A\	.	2a/	.	.
4B\)	.	4b\)	.	.
=3	=3	=3	=3	=3
(<8qd/	.	(<8qdd/	.	.
(4c\)	.	(4cc\)	.	.
4B\	.	4b\	.	.
4A\)	.	4a/)	.	.
=4	=4	=4	=4	=4
(4A\	.	(4a/	.	.
4B\	.	4b\	.	.
4c\)	.	4cc\)	.	.
=5	=5	=5	=5	=5
(<8qe/	.	(<8qee/	.	.
(4d\)	.	(4dd\)	.	.
4c\	.	4cc\	.	.
4B\)	.	4b\)	.	.
=6	=6	=6	=6	=6
(4B\	.	(4b\	.	.
4d\	.	4dd\	.	.
4e\	.	4ee\	.	.
=7	=7	=7	=7	=7
4f\	.	4ff\	.	.
4e\	.	4ee\	.	.
4g#X\	.	4gg#X\	.	.
!!LO:LB:g=original
=8	=8	=8	=8	=8
*xywh-16:744,996,2346,438	*	*xywh-16:744,996,2346,438	*	*
4b\)	.	4bb\)	.	.
4r	.	4r	.	.
4E'\	.	4ee\	.	.
=9	=9	=9	=9	=9
.	.	(<8qff/	.	.
4F'\	.	(4ee\)	.	.
4E'\	.	4dd#X\	.	.
4F'\	.	4ee\	.	.
=10	=10	=10	=10	=10
4F#X'\	.	2a/	.	.
4G'\	.	.	.	.
4G#X'\	.	4b\)	.	.
=11	=11	=11	=11	=11
.	.	(<8qdd/	.	.
4A'\	.	(4cc\)	.	.
4G#X'\	.	4b\	.	.
4A'\	.	4cc\	.	.
=12	=12	=12	=12	=12
4c'\	.	2e/	.	.
4B'\	.	.	.	.
4A'\	.	4d#X/)	.	.
=13	=13	=13	=13	=13
.	.	(8qcc/	.	.
!	!	!	!	!LO:HP:t=cresc. un poco
4G'\	.	(4b^>/)	.	<
4e'\	.	4a#X/	.	.
4B'\	.	4b/)	.	.
=14	=14	=14	=14	=14
4F#X'\	.	(4a#X/	.	.
4e'\	.	4ee\	.	.
4c#X'\	.	4cc#X\)	.	.
=15	=15	=15	=15	=15
.	.	(8qcc/	.	.
4G'\	.	(4b^>/)	.	.
4e'\	.	4a#X/	.	.
4B'\	.	4b/)	.	.
=16	=16	=16	=16	=16
4D#X'\	.	(4a#X/	.	.
4e'\	.	4gg\	.	.
4c#X'\	.	4ee\)	.	.
!!LO:LB:g=original
=17	=17	=17	=17	=17
*xywh-16:763,1428,2323,411	*	*xywh-16:763,1428,2323,411	*	*
.	.	(<8qccn/	.	.
4G'\	.	(4b^\)	.	.
4e'\	.	4a#X/	.	.
4B'\	.	4b\)	.	.
=18	=18	=18	=18	=18
4F#X'\	.	(4a#X/	.	.
4d'\	.	4e/	.	.
4c#X'\	.	4f#X/)	.	.
=19	=19	=19	=19	=19
4B'\	.	(4a 4d#X/	.	>
4r	.	4g/)	.	.
(4A 4BB\	.	(4f#X/	.	]
=	=	=	=	=
4G 4E\)	.	4e/)	.	.
4ryy	.	4r	.	.
=20:|!	=20:|!	=20:|!	=20:|!	=20:|!
*>C	*>C	*>C	*>C	*>C
4E\	.	4e/	.	p
=21!|:	=21!|:	=21!|:	=21!|:	=21!|:
*>D	*>D	*>D	*>D	*>D
(<8qc/	.	(<8qcc/	.	.
(4B-X\)	.	(4b-X\)	.	.
4A\	.	4a/	.	.
4B-\	.	4b-\	.	.
=22	=22	=22	=22	=22
2E\	.	2e/	.	.
4F\)	.	4f/)	.	.
=23	=23	=23	=23	=23
(<8qA/	.	(<8qa/	.	.
(4G\)	.	(4g/)	.	.
4F\	.	4f/	.	.
4E\	.	4e/	.	.
=24	=24	=24	=24	=24
4E\	.	4e/	.	.
4G\	.	4g/	.	.
4A\)	.	4a/)	.	.
=25	=25	=25	=25	=25
(<8qc/	.	(<8qcc/	.	.
(4B-X\)	.	(<4b-X\)	.	.
4A\	.	4a/	.	.
4G\	.	4g/	.	.
!!LO:LB:g=original
=26	=26	=26	=26	=26
*xywh-16:769,1835,2309,478	*	*xywh-16:769,1835,2309,478	*	*
!	!	!LO:TX:t=P:problem=koniec łuku na górze	!	!
4G\	.	4g/	.	.
4B-X\	.	4b-X\	.	.
4c\	.	4cc\	.	.
=27	=27	=27	=27	=27
4d-X\	.	4dd-X\	.	.
4c\	.	4cc\	.	.
4e\	.	4ee\	.	.
=28	=28	=28	=28	=28
4g\)	.	4gg\)	.	.
4r	.	4r	.	.
!LO:TX:b:i:t=ben marcato	!	!	!	!
4C/	.	4r	.	.
=29	=29	=29	=29	=29
(<8qF/	.	.	.	.
(4E-X\)	.	2.r	.	.
4D\	.	.	.	.
4E-\	.	.	.	.
=30	=30	=30	=30	=30
2AA/	.	8r	.	.
!	!	!LO:TX:b:i:t=leggiero	!	!
.	.	(8gg-X\L	1	.
.	.	8fff\	5	.
.	.	8eee-X\	4	.
4BB-X/)	.	8ccc\	2	.
.	.	8gg-\J	1	.
=31	=31	=31	=31	=31
(2BBn/	.	8ee-X\L	3	.
.	.	8dd\	2	.
.	.	8ff\	.	.
.	.	8ee-\	.	.
4C/	.	8dd\	.	.
.	.	8cc\J	.	.
=32	=32	=32	=32	=32
2F\	.	8bn\L	2	.
.	.	8cc\	3	.
.	.	8dd\	4	.
.	.	8cc\	.	.
4E-X\)	.	8b-X\	.	.
.	.	8a\J)	.	.
=33	=33	=33	=33	=33
8qG/	.	.	.	.
(4F\	.	2.r	.	.
4En\	.	.	.	.
4F\	.	.	.	.
=34	=34	=34	=34	=34
2BBn/	.	8r	.	.
.	.	(8aa-X\L	.	.
.	.	8ggg\	.	.
.	.	8fff\	.	.
4C/)	.	8ddd\	.	.
.	.	8aa-\J	.	.
!!LO:LB:g=original
=35	=35	=35	=35	=35
*xywh-16:754,2298,2340,432	*	*xywh-16:754,2298,2340,432	*	*
(2C#X/	.	8ff\L	.	.
.	.	8ee\	.	.
.	.	8gg\	.	.
.	.	8ff\	.	.
4D\	.	8ee\	.	.
.	.	8dd\J	.	.
=36	=36	=36	=36	=36
2G\	.	8cc#X\L	.	.
.	.	8dd\	.	.
.	.	8ee\	.	.
.	.	8dd\	.	.
4F\)	.	8ccn\	.	.
.	.	8b\J)	.	.
=37	=37	=37	=37	=37
(2E\	.	8r	.	.
!	!	!	!	!LO:HP:t=cresc. sempre
.	.	(8dd-X\L	.	<
.	.	8ccc\	.	.
.	.	8bb-X\	.	.
4F\	.	8gg\	.	.
.	.	8dd-\J)	.	.
=38	=38	=38	=38	=38
2A-X\	.	8r	.	.
.	.	(8b-X\L	2	.
.	.	8ff\	5	.
.	.	8ee\	4	.
4G\)	.	8dd-X\	3	.
.	.	8b-\J)	2	.
=39	=39	=39	=39	=39
(2F#X\	.	8r	.	.
.	.	(8ee-X\L	.	.
.	.	8ddd\	.	.
.	.	8ccc\	.	.
4G\	.	8aa\	.	.
.	.	8ee-\J)	.	.
=40	=40	=40	=40	=40
2B-X\	.	8r	.	.
.	.	(8cc\L	1	.
.	.	8gg\	5	.
.	.	8ff#X\	4	.
4A\)	.	8ee-X\	2	.
.	.	8cc\J)	1	.
=41	=41	=41	=41	=41
(2A-X\	.	8r	.	.
.	.	(8ffn\L	.	.
.	.	8eeen\	.	.
.	.	8ddd\	.	.
4G\	.	8bb\	.	.
.	.	8ff\J)	.	.
!!LO:LB:g=original
=42	=42	=42	=42	=42
*xywh-16:738,2710,2342,442	*	*xywh-16:738,2710,2342,442	*	*
2c\	.	8r	.	.
.	.	(8ff\L	.	.
.	.	8eee\	.	.
.	.	8ddd\	.	.
4B\)	.	8aa-X\	.	.
.	.	8ff\J)	.	.
=43	=43	=43	=43	=43
(2A-X\	.	8r	.	.
.	.	(8ff\L	.	.
.	.	8eee\	.	.
.	.	8ddd\	.	.
4G\)	.	8bb\	.	.
.	.	8ff\J)	.	.
=44	=44	=44	=44	=44
4c\	.	8r	.	.
.	.	8ff\L	.	.
4B\	.	8eee\	.	.
.	.	8ddd\	.	.
4d\	.	8aa-X\	.	.
.	.	8ff\J	.	.
=45	=45	=45	=45	=45
4f\	.	8ee\L	.	.
.	.	8dd\	.	.
4r	.	8cc\	.	.
.	.	8b\	.	.
4r	.	8a\	.	.
.	.	8g\J	.	.
=46	=46	=46	=46	=46
2.r	.	8f#X/L	.	.
.	.	8g/	.	>
.	.	8a/	.	.
.	.	8b/	.	.
.	.	8cc/	.	.
.	.	8dd/J	.	.
=47	=47	=47	=47	=47
2.r	.	8ee\L	.	.
.	.	8ff\	.	.
.	.	8gg\	.	.
.	.	8aa\	.	.
.	.	8bb\	.	.
.	.	8ccc\J	.	.
=48	=48	=48	=48	=48
2.r	.	8ddd\L	.	.
.	.	8eee\	.	.
.	.	8fff\	.	.
.	.	8eee\	.	.
.	.	8fff\	.	]
.	.	8eee\J	.	.
!!LO:LB:g=original
=49	=49	=49	=49	=49
*	*	*	*	*^
*xywh-16:748,3144,2348,519	*	*xywh-16:748,3144,2348,519	*	*	*
4G#X'\	.	2.eee#X [2.bb 2.ee#X\	.	sf	sf
!	!	!	!	!	!LO:DY:rj
4d'\	.	.	.	>	p
4B'\	.	.	.	.	.
*	*	*	*	*v	*v
=50	=50	=50	=50	=50
4F#X'\	.	2.fff#X 2.bb_ 2.ff#X\	.	.
4d'\	.	.	.	.
4B'\	.	.	.	]
=51	=51	=51	=51	=51
4E#X'\	.	8ggg#X 8bb] 8gg#X\	.	.
.	.	8r	.	.
4d'\	.	(4b\	.	p
4B'\	.	4cc#X\	.	.
=52	=52	=52	=52	=52
.	.	(<8qee/	.	.
4G#X'\	.	4dd\)	.	.
4d'\	.	4cc#X\	.	.
4B'\	.	4b\)	.	.
=53	=53	=53	=53	=53
4F#X'\	.	2.ddd#X [2.aa 2.dd#X\	.	sf >
4c'\	.	.	.	.
4A'\	.	.	.	]]
=54	=54	=54	=54	=54
4E'\	.	2.eee 2.aa_ 2.ee\	.	.
4c'\	.	.	.	.
4A'\	.	.	.	.
=55	=55	=55	=55	=55
4D#X'\	.	8fff#X 8aa] 8ff#X\	.	.
.	.	8r	.	.
4c'\	.	(4a/	.	.
4A'\	.	4b/	.	.
=56	=56	=56	=56	=56
.	.	8qdd/	.	.
4F#X'\	.	4cc\	.	.
4c'\	.	4b\	.	.
4A'\	.	4a/)	.	.
=57	=57	=57	=57	=57
4F#X'^\	.	4dd#X 4d#X^>/	.	.
!	!	!LO:TX:b:t=cres_cen_do:problem=dynamics with extention lines	!	!LO:HP:t=cre_scen_do
4A'\	.	4cc'\	.	<
4F#'\	.	4a'/	.	.
!!LO:PB:g=original
=58	=58	=58	=58	=58
*xywh-17:406,531,2322,505	*	*xywh-17:406,531,2322,505	*	*
4D#X'^\	.	4ff#X 4f#X'^\	.	.
4F#X'\	.	4dd#X'\	.	.
4D#'\	.	4cc'\	.	.
=59	=59	=59	=59	=59
4C'^>/	.	4aa 4a'^\	.	.
4D#X'\	.	4ff#X'\	.	.
4C'/	.	4dd#X'\	.	.
=60	=60	=60	=60	=60
4AA'^>/	.	4ddd#X 4dd#X^\	.	[
4C'/	.	4ccc\	.	.
4AA'/	.	4aa\	.	.
=61	=61	=61	=61	=61
4EE/	.	4eee 4gg#X 4ee\	.	.
4r	.	4r	.	.
4r	.	4r	.	.
=62	=62	=62	=62	=62
[2.D [2.DD/	.	8r	.	ff
.	.	(8aa\L	.	.
.	.	8ggg\	.	.
.	.	8fff\	.	.
.	.	8ddd\	.	.
.	.	8aa\J	.	.
=63	=63	=63	=63	=63
4D] 4DD/]	.	8ff\L	.	.
.	.	8dd\	.	.
4C#X 4CC#X/	.	8gg\	.	.
.	.	8ff\	.	.
4D 4DD/	.	8dd\	.	.
.	.	8a\J	.	.
=64	=64	=64	=64	=64
(2G 2GG/	.	8a/L	.	.
.	.	8d#X/	.	.
.	.	8b/	.	.
.	.	8a/	.	.
4F 4FF/	.	8d#/	.	.
.	.	8B/J	.	.
=65	=65	=65	=65	=65
4E 4EE/)	.	4e 4G#X/)	.	.
4r	.	4r	.	.
4r	.	4r	.	.
!!LO:LB:g=original
=66	=66	=66	=66	=66
*xywh-17:431,1008,2311,505	*	*xywh-17:431,1008,2311,505	*	*
[2.DD [2.DDD/	.	8r	.	.
.	.	(8a\L	.	.
.	.	8gg\	.	.
.	.	8ff\	.	.
.	.	8dd\	.	.
.	.	8a\J	.	.
=67	=67	=67	=67	=67
4DD] 4DDD/]	.	8f/L	.	.
.	.	8d/	.	.
4CC#X 4CCC#X/	.	8g/	.	.
.	.	8f/	.	.
4DD 4DDD/	.	8d/	.	.
.	.	8A/J	.	.
*	*	*clefF4	*	*
=68	=68	=68	=68	=68
(2GG 2GGG/	.	8A\L	.	.
.	.	8D#X\	.	.
.	.	8B\	.	.
.	.	8A\	.	.
4FF 4FFF/)	.	8F\	.	.
.	.	8BB\J	.	.
=69	=69	=69	=69	=69
4DD#X 4DDD#X'/	.	4E 4GG#X/)	.	>
4EE 4EEE'/	.	4r	.	.
4DD#X 4DDD#X'/	.	4r	.	]
*	*	*clefG2	*	*
=70	=70	=70	=70	=70
!	!	!	!	!LO:HP:t=dimin.
4EE 4EEE'/	.	8r	.	>
.	.	(8a\L	.	.
4DD#X 4DDD#X'/	.	8gg#X\	.	.
.	.	8ff#X\	.	.
4EE 4EEE'/	.	8dd#X\	.	.
.	.	8a\J	.	.
=71	=71	=71	=71	=71
4DD#X 4DDD#X'/	.	4ee 4g#X\)	.	.
4EE 4EEE'/	.	4r	.	.
4DD# 4DDD#'/	.	4r	.	.
=72	=72	=72	=72	=72
4EE 4EEE'/	.	8r	.	.
.	.	(8A/L	.	.
4DD#X 4DDD#X'/	.	8g#X/	.	.
.	.	8f#X/	.	.
4EE 4EEE'/	.	8d#X/	.	.
.	.	8A/J	.	.
!!LO:LB:g=original
=73	=73	=73	=73	=73
*xywh-17:427,1489,2322,474	*	*xywh-17:427,1489,2322,474	*	*
4DD#X 4DDD#X'/	.	4e 4G#X/)	.	.
4EE 4EEE'/	.	4r	.	.
4DD# 4DDD#'/	.	4r	.	.
=74	=74	=74	=74	=74
4EE 4EEE'/	.	8r	.	.
.	.	(8a\L	.	.
4DD#X 4DDD#X'/	.	8gg#X\	.	.
.	.	8ff#X\	.	.
4EE 4EEE'/	.	8dd#X\	.	.
.	.	8a\J	.	.
=75	=75	=75	=75	=75
4DD#X 4DDD#X'/	.	4ee 4g#X\)	.	.
4EE 4EEE'/	.	4r	.	.
4DD# 4DDD#'/	.	4r	.	.
=76	=76	=76	=76	=76
4EE 4EEE'/	.	8r	.	.
.	.	(8A/L	.	.
4DD#X 4DDD#X'/	.	8g#X/	.	.
.	.	8f#X/	.	.
4EE 4EEE'/	.	8d#X/	.	.
.	.	8A/J	.	.
=77	=77	=77	=77	=77
4DD#X 4DDD#X'/	.	4e 4G#X/)	.	.
4EE 4EEE'/	.	4r	.	<
4DD# 4DDD#'/	.	4r	.	.
=78	=78	=78	=78	=78
4EE 4EEE'/	.	2.r	.	.
4DD#X 4DDD#X'/	.	.	.	.
4EE 4EEE'/	.	.	.	.
=79	=79	=79	=79	=79
4DD#X 4DDD#X'/	.	2.r	.	.
4EE 4EEE'/	.	.	.	.
4DD# 4DDD#'/	.	.	.	.
=80	=80	=80	=80	=80
4EE 4EEE'/	.	4r	.	.
4DD#X 4DDD#X'/	.	4r	.	.
4EE 4EEE'/	.	4ee 4e/	.	ff
!!LO:LB:g=original
=81	=81	=81	=81	=81
*xywh-17:427,1920,2345,518	*	*xywh-17:427,1920,2345,518	*	*
.	.	(<8qff/	.	.
4FF 4FFF'/	.	4ee 4e/)	.	.
4EE 4EEE'/	.	4dd#X 4d#X/	.	.
4FF 4FFF'/	.	4ee 4e/	.	.
=82	=82	=82	=82	=82
4FF#X 4FFF#X'/	.	2a 2A/	.	.
4GG 4GGG'/	.	.	.	.
4GG#X 4GGG#X'/	.	4b 4B/	.	.
=83	=83	=83	=83	=83
.	.	(<8qdd/	.	.
4AA 4AAA'/	.	4cc 4c/)	.	.
4BB 4BBB'/	.	4b 4B/	.	.
4C 4CC'/	.	4a 4A/	.	.
=84	=84	=84	=84	=84
4C 4CC'/	.	4a 4A/	.	.
4BB 4BBB'/	.	4b 4B/	.	.
4AA 4AAA'/	.	4cc 4c/	.	.
=85	=85	=85	=85	=85
.	.	(<8qee/	.	.
4BB 4BBB'/	.	4dd 4d/)	.	.
4C 4CC'/	.	4cc 4c/	.	.
4D 4DD'/	.	4b 4B/	.	.
=86	=86	=86	=86	=86
4D 4DD'/	.	4b 4B/	.	.
4B 4BB'\	.	4dd 4d/	.	.
4A 4AA'\	.	4ff 4f\	.	.
=87	=87	=87	=87	=87
4G#X 4GG#X'/	.	4ff 4f\	.	.
4B 4BB'\	.	4ee 4e/	.	.
4G# 4GG#'/	.	4gg#X 4g#X\	.	.
=88	=88	=88	=88	=88
4E 4EE'/	.	2bb 2b\	.	.
4G#X 4GG#X'/	.	.	.	.
4E 4EE'/	.	4ee 4e/	.	.
=89	=89	=89	=89	=89
*^	*	*	*	*^
*	*xywh-17:427,1920,2345,518	*	*	*	*	*
4EE 4EEE'/	2ryy	.	4r	.	.	.
4r	.	.	4r	.	.	.
*clefG2	*	*	*	*	*	*
!	!	!	!	!	!	!LO:HP:b=2
4dd/	[4g [4e\	.	([4ggg [4gg\	.	>	>
!!LO:LB:g=original
=90	=90	=90	=90	=90	=90	=90
*xywh-17:414,2382,2330,457	*xywh-17:414,2382,2330,457	*	*xywh-17:414,2382,2330,457	*	*	*
4cc/	4g] 4e\]	.	8ggg]L 8gg\]	.	.	]
.	.	.	8eee\	.	.	.
4r	4ryy	.	8ccc\	.	.	.
.	.	.	8gg\	.	]	.
4r	4ryy	.	8ee\	.	.	.
.	.	.	8cc\J	.	.	.
*clefF4	*	*	*	*	*	*
*	*	*	*	*	*v	*v
=91	=91	=91	=91	=91	=91
*	*	*	*^	*	*
*	*	*	*	*xywh-17:414,2382,2330,457	*	*
4r	4ryy	.	8g/)	4ryy	.	.
.	.	.	8r	.	.	.
(4A/	[2E-X\	.	(4a/	[2f\	.	p
4B-X/	.	.	4b-X/	.	.	.
=92	=92	=92	=92	=92	=92	=92
4d/	2E-\]	.	4dd/	2f\]	.	.
4c/)	.	.	4cc/	.	.	.
4F'>/	4ryy	.	4f'/)	4ryy	.	.
*	*	*	*v	*v	*	*
=93	=93	=93	=93	=93	=93
2ryy	4D\	.	4r	.	.
.	4r	.	4r	.	.
*clefG2	*	*	*	*	*
(4cc^/	[>4f [4d\	.	([4fff [4ff^\	.	ff
=94	=94	=94	=94	=94	=94
4b-X/)	4f] 4d\]	.	8fff]L 8ff\]	.	.
.	.	.	8ddd\	.	.
4r	4ryy	.	8bb-X\	.	.
.	.	.	8ff\	.	.
4r	4ryy	.	8dd\	.	.
.	.	.	8b-X\J	.	.
*clefF4	*	*	*	*	*
=95	=95	=95	=95	=95	=95
*	*	*	*^	*	*
*	*	*	*	*xywh-17:414,2382,2330,457	*	*
4r	4r	.	8f/)	4ryy	.	.
.	.	.	8r	.	.	.
(4G#X/	[2D\	.	(4g#X/	[2e\	.	p
4A/	.	.	4a/	.	.	.
=96	=96	=96	=96	=96	=96	=96
4c/	2D\]	.	4cc/	2e\]	.	.
4B/	.	.	4b/	.	.	.
4E')/	4ryy	.	4e'/)	4ryy	.	.
*v	*v	*	*	*	*	*
*	*	*v	*v	*	*
=97	=97	=97	=97	=97
4C/	.	4r	.	.
!	!	!LO:TX:b:i:t=espress.	!	!
(4a\	.	(4eee 4ee\	.	.
4e\	.	4aa\)	.	.
!!LO:LB:g=original
=98	=98	=98	=98	=98
*xywh-17:406,2792,2349,441	*	*xywh-17:406,2792,2349,441	*	*
4B\	.	4r	.	.
4a\	.	(4ddd#X 4dd#X\	.	.
4f#X\)	.	4ff#X\)	.	.
=99	=99	=99	=99	=99
(4B\	.	(4aa\	.	.
4a\	.	4bb\	.	.
4f#X\	.	4ddd\	.	.
=100	=100	=100	=100	=100
.	.	8qddd/	.	.
4B\	.	4ccc\	.	.
4a\	.	4bb\	.	.
4f#X\)	.	4aa\)	.	.
=101	=101	=101	=101	=101
4C/	.	4r	.	.
(4a\	.	(4eee 4ee\	.	.
4e\	.	4aa\)	.	.
=102	=102	=102	=102	=102
4B\	.	8r	.	.
!	!	!	!	!LO:DY:a
.	.	(8dd#X\L	.	pp
4a\	.	8ee\	.	.
.	.	8ff\	.	.
4f#X\	.	8ff#X\	.	.
.	.	8gg\J	.	.
=103	=103	=103	=103	=103
4B\	.	8gg#X\L	.	.
.	.	8aa\	.	.
4a\	.	8aa#X\	.	.
.	.	8bb\	.	.
4f#X\)	.	8ddd\	.	.
.	.	8ccc\J)	.	.
=104	=104	=104	=104	=104
(4B\	.	(8bb\L	.	.
.	.	8aa\	.	.
4a\	.	8gg\	.	.
.	.	8ff#X\	.	.
4f#X\)	.	8ee\	.	.
.	.	8dd#X\J)	.	.
=105	=105	=105	=105	=105
*^	*	*	*	*
*	*xywh-17:406,2792,2349,441	*	*	*	*
2c#X/	(4c#\	.	4r	.	.
.	4a\	.	(4eee 4ee\	.	>
4ryy	4g\	.	4aa\)	.	]
!!LO:LB:g=original
=106	=106	=106	=106	=106	=106
*xywh-17:418,3235,2322,476	*xywh-17:418,3235,2322,476	*	*xywh-17:418,3235,2322,476	*	*
2.d/	4d\	.	8r	.	.
!	!	!	!LO:TX:b:i:t=leggiero	!	!
.	.	.	(8ff\L	.	.
.	4a\	.	8ee\	.	.
.	.	.	8dd\	.	.
.	4f\)	.	8cc\	.	.
.	.	.	8b\J)	.	.
=107	=107	=107	=107	=107	=107
2.G/	(4G#X\	.	4r	.	.
.	4e\	.	(4bb 4b\	.	>
.	4d\	.	4ee\)	.	]
=108	=108	=108	=108	=108	=108
2.A/	4A\	.	8r	.	.
!	!	!	!LO:TX:b:i:t=leggiero	!	!
.	.	.	(8cc/L	.	.
.	4e\	.	8b/	.	.
.	.	.	8a/	.	.
.	4c\)	.	8g/	.	.
.	.	.	8f#X/J)	.	.
=109	=109	=109	=109	=109	=109
2G/	(4Gn\	.	4r	.	.
.	4e\	.	(4bb-X 4b-X\	.	>
4ryy	4G\	.	4ee\)	.	]
=110	=110	=110	=110	=110	=110
2F#X/	4F#\	.	4r	.	.
.	4d\	.	(4aa 4a\	.	>
4ryy	4Fn\)	.	4dd\)	.	]
*v	*v	*	*	*	*
=111	=111	=111	=111	=111
4E\	.	(4dd 4g#X/	.	.
4r	.	4cc/)	.	.
(4d (4E\	.	((4b/	.	p
=112	=112	=112	=112	=112
!!LO:TX:a:t=1.
*>D1	*>D1	*>D1	*>D1	*>D1
4c 4A\)	.	4a/)	.	.
4r	.	4r	.	.
4E\	.	4e/	.	.
=113:|!	=113:|!	=113:|!	=113:|!	=113:|!
!!LO:TX:a:t=2.
*>D2	*>D2	*>D2	*>D2	*>D2
!	!	!LO:TX:b:t=Fine.	!	!
4c 4A\)	.	4a/)	.	.
4r	.	4r	.	.
4EE/	.	4r	.	.
!!LO:PB:g=original
=114!|:	=114!|:	=114!|:	=114!|:	=114!|:
*>E	*>E	*>E	*>E	*>E
*k[f#c#g#]	*	*k[f#c#g#]	*	*
*xywh-18:792,443,2365,534	*	*xywh-18:792,443,2365,534	*	*
!LO:TX:a:i:t=sotto voce	!	!LO:TX:a:B:t=Un poco meno mosso [half-dot]=96.	!	!
(4AA 4AAA/	.	2.r	.	.
4EE/)	.	.	.	.
4AA 4AAA'/	.	.	.	.
=115	=115	=115	=115	=115
(4AA 4AAA/	.	2.r	.	.
4EE/)	.	.	.	.
4AA 4AAA'/	.	.	.	.
=116	=116	=116	=116	=116
(4AA 4AAA/	.	2.r	.	.
4EE/)	.	.	.	.
4AA 4AAA'/	.	.	.	.
=117	=117	=117	=117	=117
(4AA 4AAA/	.	2.r	.	.
4EE/)	.	.	.	.
4AA 4AAA'/	.	.	.	.
=118	=118	=118	=118	=118
(4AA 4AAA/	.	4r	.	.
4EE/)	.	4r	.	.
4AA 4AAA'/	.	4d 4F#'/	.	.
=119	=119	=119	=119	=119
(4AA 4AAA/	.	(2d 2F#/	.	.
4EE/)	.	.	.	.
4AA 4AAA'/	.	4c# 4E/)	.	.
=120	=120	=120	=120	=120
(4AA 4AAA/	.	(4c# 4E/	.	.
4EE/)	.	4A/)	.	.
4AA 4AAA'/	.	4f# 4d'/	.	.
=121	=121	=121	=121	=121
(4AA 4AAA/	.	(2f# 2d/	.	.
4EE/)	.	.	.	.
4AA 4AAA'/	.	4e 4c#/)	.	.
!!LO:LB:g=original
=122	=122	=122	=122	=122
*^	*	*	*	*
*xywh-18:794,960,2363,457	*xywh-18:794,960,2363,457	*	*xywh-18:794,960,2363,457	*	*
(4AA 4AAA/	2ryy	.	(4e 4c#/	.	.
4EE/)	.	.	4A/)	.	.
[4AA/	4AA\	5	4cc# 4e'/	.	.
=123	=123	=123	=123	=123	=123
(4E/	2.AA\]	.	(>4cc# (4e/	.	<
4E#X/	.	.	4b 4d/	.	.
4F#/	.	.	4a 4c#/)	.	.
=124	=124	=124	=124	=124	=124
*	*	*	*^	*	*
*	*	*	*	*xywh-18:794,960,2363,457	*	*
4F#/	2.BB\	.	4a/	2d#X\	.	.
4G#/	.	.	4g#/	.	.	.
4A/)	.	.	4f# 4d#/)	4ryy	.	[
*	*	*	*v	*v	*	*
=125	=125	=125	=125	=125	=125
(4G#/	2.E\	.	2b [2dn/	.	>
4F#/	.	.	.	.	.
4G#/)	.	.	4e 4d/]	.	]
*v	*v	*	*	*	*
=126	=126	=126	=126	=126
*	*	*^	*	*
*	*	*	*xywh-18:794,960,2363,457	*	*
(8F#\L	.	(4e/	2B#X\	.	pp
8A\	.	.	.	.	.
8G#\	.	4d#X/)	.	.	.
8F#\	.	.	.	.	.
8E\	.	(4g# 4c#'/	4ryy	.	.
8G#\J	.	.	.	.	.
*	*	*v	*v	*	*
=127	=127	=127	=127	=127
8E\L	.	2g# 2c#/	.	.
8G#\	.	.	.	.
8F#\	.	.	.	.
8E\	.	.	.	.
8D#X\	.	4a#X 4c#/)	.	.
8F##X\J	.	.	.	.
=128	=128	=128	=128	=128
8D#X\L	.	(2a#X 2c#/	.	<
8F##X\	.	.	.	.
8E#X\	.	.	.	.
8D#\	.	.	.	.
8Dn\	.	4b 4f# 4B/)	.	.
8F#X\J	.	.	.	.
=129	=129	=129	=129	=129
8D\L	.	(2b 2f# 2B/	.	.
8F#\	.	.	.	.
8E\	.	.	.	.
8D\	.	.	.	.
8C#\	.	4cc# 4e#X/)	.	.
8G#\J)	.	.	.	.
!!LO:LB:g=original
=130	=130	=130	=130	=130
*xywh-18:796,1407,2350,448	*	*xywh-18:796,1407,2350,448	*	*
(8C#\L	.	(2cc# 2e#X/	.	.
8G#\	.	.	.	.
8E#X\	.	.	.	.
8C#\	.	.	.	.
8BB\	.	4dd 4f#/)	.	.
8G#\J	.	.	.	.
=131	=131	=131	=131	=131
8BB\L	.	2dd 2f#/	.	.
8G#\	.	.	.	.
8d\	.	.	.	.
8G#\	.	.	.	[
8D\	.	4f# 4B/	.	.
8G#\J	.	.	.	.
=132	=132	=132	=132	=132
*	*	*^	*	*
*	*	*	*xywh-18:796,1407,2350,448	*	*
8D\L	.	2f#/	(4B\	.	>
8G#\	.	.	.	.	.
8F#\	.	.	4B#X\)	.	.
8D\	.	.	.	.	.
8C#\	.	4e#X/	4c#\	.	.
8G#\J	.	.	.	.	]
*	*	*v	*v	*	*
=133	=133	=133	=133	=133
4C#/)	.	4e#X 4c#/	.	.
4r	.	4r	.	.
!LO:TX:b:t=P:problem=początek łuku do powtórki	!	!	!	!
4BB/	.	4r	.	.
=134:|!|:	=134:|!|:	=134:|!|:	=134:|!|:	=134:|!|:
*>F	*>F	*>F	*>F	*>F
*^	*	*	*	*
*	*xywh-18:796,1407,2350,448	*	*	*	*
2AA/	[2.AA\	.	4r	.	.
.	.	.	4r	.	.
!	!	!	!LO:TX:b:i:t=espressivo	!	!
4E/	.	.	4g# 4cn'/	.	.
=135	=135	=135	=135	=135	=135
(2D#X/	2.AA\]	.	2g# [2cn/	.	.
4D#/)	.	.	4f# 4c/]	.	.
=136	=136	=136	=136	=136	=136
(2D#X/	[2.EE\	.	(2a 2cn/	.	.
4E/)	.	.	4g# 4B/)	.	.
*v	*v	*	*	*	*
=137	=137	=137	=137	=137
4E 4EE/]	.	4g# 4B/	.	.
(4G#\	.	4r	.	.
4B\)	.	4r	.	.
!!LO:LB:g=original
=138	=138	=138	=138	=138
*^	*	*	*	*
*xywh-18:817,1848,2315,469	*xywh-18:817,1848,2315,469	*	*xywh-18:817,1848,2315,469	*	*
2E/	[2.E\	.	4r	.	.
.	.	.	4r	.	.
4B/	.	.	4ddn 4gn\	.	.
=139	=139	=139	=139	=139	=139
(2A#X/	2.E\]	.	(2dd 2gn\	.	<
4A#/)	.	.	4cc# 4g/)	.	.
=140	=140	=140	=140	=140	=140
(2A#X/	[2.D\	.	(2ggn 2cc# 2gn\	.	.
4B/)	.	.	4ff# 4dd 4f#\)	.	.
=141	=141	=141	=141	=141	=141
4B/	4D\]	.	4ff# 4dd 4f#\	.	[
*clefG2	*	*	*	*	*
(4B/	2ryy	.	4r	.	>
4d/	.	.	4r	.	]
*v	*v	*	*	*	*
=142	=142	=142	=142	=142
4f#'/)	.	4r	.	.
(4B/	.	(4b\	.	p
4d/	.	4dd\	.	.
=143	=143	=143	=143	=143
4a'/)	.	4aa'\)	.	.
(4B/	.	(4b\	.	.
4d/	.	4dd\	.	.
=144	=144	=144	=144	=144
4g#'/)	.	4gg#'\)	.	.
(4B/	.	(4b\	.	.
4d/	.	4dd\	.	.
=145	=145	=145	=145	=145
4f#'/)	.	4ff#'\)	.	.
(4B/	.	(4b\	.	.
4d/	.	4dd\	.	.
=146	=146	=146	=146	=146
4f#'/)	.	4ff#'\)	.	.
(<4G#/	.	(4g#/	.	>
4B/	.	4b\	.	.
!!LO:LB:g=original
=147	=147	=147	=147	=147
*xywh-18:815,2313,2323,463	*	*xywh-18:815,2313,2323,463	*	*
4d#X/	.	4dd#X\	.	.
4f#/	.	4ff#\	.	.
4e/	.	4ee\	.	.
=148	=148	=148	=148	=148
4dn/	.	4ddn\	.	.
4B/	.	4b\	.	.
4G#/	.	4g#/	.	]
*clefF4	*	*	*	*
=149	=149	=149	=149	=149
4E\	.	4e/)	.	.
4D\	.	4r	.	.
4BB/)	.	4r	.	.
=150	=150	=150	=150	=150
(8AA/L	.	2.r	.	pp
8GG#/	.	.	.	.
8AA/	.	.	.	.
8AAA/	.	.	.	.
8AA/	.	.	.	.
8GG#/J)	.	.	.	.
=151	=151	=151	=151	=151
(8AA/L	.	2.r	.	.
8GG#/	.	.	.	.
8AA/	.	.	.	.
8AAA/	.	.	.	.
8AA/	.	.	.	.
8GG#/J)	.	.	.	.
=152	=152	=152	=152	=152
(8AA/L	.	2.r	.	.
8GG#/	.	.	.	.
8AA/	.	.	.	.
8AAA/	.	.	.	.
8AA/	.	.	.	.
8GG#/J)	.	.	.	.
=153	=153	=153	=153	=153
(8AA/L	.	2.r	.	.
8GG#/	.	.	.	.
8AA/	.	.	.	.
8AAA/	.	.	.	.
8AA/	.	.	.	.
8GG#/J)	.	.	.	.
=154	=154	=154	=154	=154
(8AA/L	.	4r	.	.
8GG#/	.	.	.	.
8AA/	.	4r	.	.
8AAA/	.	.	.	.
8AA/	.	4d 4F#'/	.	.
8GG#/J)	.	.	.	.
!!LO:LB:g=original
=155	=155	=155	=155	=155
*xywh-18:800,2748,2331,461	*	*xywh-18:800,2748,2331,461	*	*
(8AA/L	.	(2d 2F#/	.	.
8GG#/	.	.	.	.
8AA/	.	.	.	.
8AAA/	.	.	.	.
8AA/	.	4c# 4E/)	.	.
8GG#/J)	.	.	.	.
=156	=156	=156	=156	=156
(8AA/L	.	(4c# 4E/	.	.
8GG#/	.	.	.	.
8AA/	.	4A/)	.	.
8AAA/	.	.	.	.
8AA/	.	4f# 4d'/	.	.
8GG#/J)	.	.	.	.
=157	=157	=157	=157	=157
(8AA/L	.	(2f# 2d/	.	.
8GG#/	.	.	.	.
8AA/	.	.	.	.
8AAA/	.	.	.	.
8AA/	.	4e 4c#/)	.	.
8GG#/J)	.	.	.	.
=158	=158	=158	=158	=158
(8AA/L	.	(4e 4c#/	.	.
8GG#/	.	.	.	.
8AA/	.	4A/)	.	.
8AAA/	.	.	.	.
8AA/	.	4cc# 4e'/	.	<
8GG#/J	.	.	.	.
=159	=159	=159	=159	=159
8BB/L	.	(4cc# 4e/	.	.
8AA#X/	.	.	.	.
8BB/	.	4b 4d#X/)	.	.
8C#/	.	.	.	.
8D#X/	.	4a 4f#'/	.	.
8BB/J	.	.	.	.
=160	=160	=160	=160	=160
*	*	*^	*	*
*	*	*	*xywh-18:800,2748,2331,461	*	*
8E\L	.	(4a/	2d#X 2B\	.	.
8D#X\	.	.	.	.	.
8E\	.	4g#/)	.	.	.
8F#\	.	.	.	.	.
8G#\	.	4f#'/	4d# 4B\	.	.
8A\J	.	.	.	.	.
*	*	*v	*v	*	*
=161	=161	=161	=161	=161
8G#\L	.	(>2b 2e 2dn/	.	.
8A\	.	.	.	.
8G#\	.	.	.	.
8F#\	.	.	.	[
8G#\	.	4e 4d/)	.	.
8E\J	.	.	.	.
!!LO:LB:g=original
=162	=162	=162	=162	=162
*	*	*^	*	*
*xywh-18:794,3199,2365,459	*	*xywh-18:794,3199,2365,459	*xywh-18:794,3199,2365,459	*	*
!	!	!	!	!	!LO:DY:a
8E\L	.	(4d/	2A#X\	.	p
8Gn\	.	.	.	.	.
8F#\	.	4c#/)	.	.	.
8E\	.	.	.	.	.
8D\	.	4f# 4B'/	4ryy	.	.
8F#\J	.	.	.	.	.
*	*	*v	*v	*	*
=163	=163	=163	=163	=163
8D\L	.	2f# 2B/	.	.
8F#\	.	.	.	.
8E\	.	.	.	.
8D\	.	.	.	.
8C#\	.	4g# 4B/	.	.
8E#X\J)	.	.	.	.
=164	=164	=164	=164	=164
(8C#\L	.	(2g# 2B/	.	.
8E#X\	.	.	.	.
8D#X\	.	.	.	.
8C#\	.	.	.	.
8Cn\	.	4a 4e 4A/)	.	.
8En\J	.	.	.	.
=165	=165	=165	=165	=165
8Cn/L	.	(2a 2e 2A/	.	.
8E/	.	.	.	.
8D/	.	.	.	.
8C/	.	.	.	.
8BB/	.	4b 4d/)	.	.
8E/J	.	.	.	.
=166	=166	=166	=166	=166
8BB\L	.	(4b 4d/	.	.
8E\	.	.	.	.
8G#\	.	4e/)	.	<
8E\	.	.	.	.
8AA#X\	.	4cc# 4c#'/	.	.
8E\J)	.	.	.	.
=167	=167	=167	=167	=167
(8AA#X\L	.	(4cc# 4c#/	.	.
8E\	.	.	.	.
8G#\	.	4e/)	.	.
8E\	.	.	.	.
8BB\	.	4dd 4d'/	.	.
8E\J	.	.	.	.
!!LO:PB:g=original
=168	=168	=168	=168	=168
*xywh-19:400,494,2338,526	*	*xywh-19:400,494,2338,526	*	*
8BB\L	.	(4dd 4d/	.	.
8E\	.	.	.	.
8G#\	.	4e/)	.	.
8E\	.	.	.	.
8AA\	.	4fn 4cn'/	.	.
8Fn\J	.	.	.	.
=169	=169	=169	=169	=169
8AA\L	.	(2fn 2cn/	.	.
8Fn\	.	.	.	.
8Gn\	.	.	.	.
8F\	.	.	.	.
8GG#X\	.	4e 4B/)	.	[[
8E\J	.	.	.	.
=170	=170	=170	=170	=170
8GG#/L	.	(4e 4B/	.	>
8E/	.	.	.	.
8F#/	.	4d/)	.	.
8E/	.	.	.	.
8GGn/	.	4a 4c#'/	.	.
8E/J	.	.	.	.
=171	=171	=171	=171	=171
8FF#/L	.	(4a 4c#/	.	.
8C#/	.	.	.	.
8D/	.	4A/)	.	.
8C#/	.	.	.	.
8FFn/	.	4c# 4A'/	.	.
8C#/J	.	.	.	.
=172	=172	=172	=172	=172
8EE/L	.	(4e 4G#/	.	.
8E/	.	.	.	.
8F#/	.	4d/)	.	.
8E/	.	.	.	]
8D/	.	4B 4G#/	.	.
8E/J	.	.	.	.
=173	=173	=173	=173	=173
*>F1	*>F1	*>F1	*>F1	*>F1
!LO:TX:b:t=Scherzo dal segno dopo al\nFine e poi la Cada.	!	!	!	!
8C#L 8AA/	.	4A/	.	.
8D/	.	.	.	.
8E/	.	4r	.	.
8D/	.	.	.	.
8C#/	.	4r	.	.
8BB/J	.	.	.	.
=174:|!	=174:|!	=174:|!	=174:|!	=174:|!
*>F2	*>F2	*>F2	*>F2	*>F2
4C# 4AA/)	.	4A/	.	.
4r	.	4r	.	.
!LO:TX:a:t=P:problem=początek łuku do powtórki	!	!LO:TX:a:t=P:problem=początek łuku do powtórki	!	!
4e\	.	4ee\	.	.
!!LO:LB:g=original
=175||	=175||	=175||	=175||	=175||
*>G	*>G	*>G	*>G	*>G
*k[]	*	*k[]	*	*
*xywh-19:408,1010,2324,491	*	*xywh-19:408,1010,2324,491	*	*
!	!	!LO:TX:a:B:t=CODA.	!	!
(4AA 4AAA/	.	2.r	.	pp
4EE/)	.	.	.	.
4AA 4AAA'/	.	.	.	.
=176	=176	=176	=176	=176
(4AA 4AAA/	.	(>[2.g [>2.e [2.B-X/	.	>
4EE/)	.	.	.	.
4AA 4AAA'/	.	.	.	.
=177	=177	=177	=177	=177
(4AA 4AAA/	.	2.g] 2.e] 2.B-/]	.	.
4EE/)	.	.	.	.
4AA 4AAA'/	.	.	.	.
=178	=178	=178	=178	=178
(4AA 4AAA/	.	2.f#X 2.d#X 2.A/	.	.
4EE/)	.	.	.	.
4AA 4AAA'/	.	.	.	]]
=179	=179	=179	=179	=179
(4AA 4AAA/	.	4fn 4dn 4G#X/)	.	.
4EE/)	.	4r	.	.
4AA 4AAA'/	.	4r	.	.
=180	=180	=180	=180	=180
!	!	!LO:TX:b:i:t=leggiero	!	!
(4AA 4AAA/	.	(>8dd\L	.	.
.	.	8bb\	.	.
4EE/)	.	8gg#X\	.	.
.	.	8ff\	.	.
4AA 4AAA/	.	8dd\	.	.
.	.	8b\J	.	.
=181	=181	=181	=181	=181
4EE/	.	8g#X/L	.	.
.	.	8f/	.	.
4r	.	8d/	.	.
.	.	8b/	.	.
4r	.	8g#/	.	.
.	.	8f/J	.	.
=182	=182	=182	=182	=182
!	!	!LO:TX:t=P:problem=mixed beam	!	!
2.r	.	8d\L	.	.
.	.	8B\	.	.
.	.	8G#X</	.	.
.	.	8F</	.	.
.	.	8D</	.	.
.	.	8C</J	.	.
!!LO:LB:g=original
=183	=183	=183	=183	=183
*xywh-19:393,1461,2357,501	*	*xywh-19:393,1461,2357,501	*	*
(4AA 4AAA\	.	4BB</)	.	.
4EE\)	.	4r	.	.
4AA 4AAA\	.	4r	.	.
=184	=184	=184	=184	=184
(4AA 4AAA/	.	(>[2.f [>2.d [2.G#X/	.	.
4EE/)	.	.	.	.
4AA 4AAA'/	.	.	.	.
=185	=185	=185	=185	=185
(4AA 4AAA/	.	2.f] 2.d] 2.G#/]	.	>
4EE/)	.	.	.	.
4AA 4AAA'/	.	.	.	.
=186	=186	=186	=186	=186
(4AA 4AAA/	.	2.e 2.c#X 2.Gn/	.	.
4EE/)	.	.	.	.
4AA 4AAA'/	.	.	.	]]
=187	=187	=187	=187	=187
(4AA 4AAA/	.	4d#X 4cn 4F#X/)	.	.
4EE/)	.	4r	.	.
4AA 4AAA'/	.	4r	.	.
=188	=188	=188	=188	=188
!	!	!LO:TX:b:i:t=leggiero	!	!
(4AA 4AAA/	.	(>8cc\L	.	.
.	.	8aa\	.	.
4EE/)	.	8ff#X\	.	.
.	.	8dd#X\	.	.
4AA 4AAA'/	.	8cc\	.	.
.	.	8a\J	.	.
=189	=189	=189	=189	=189
4EE/	.	8f#X/L	.	.
.	.	8d#X/	.	.
4r	.	8c/	.	.
.	.	8a/	.	.
4r	.	8f#/	.	.
.	.	8d#/J	.	.
=190	=190	=190	=190	=190
2.r	.	8c</L	.	.
.	.	8A</	.	.
.	.	8F#X</	.	.
.	.	8D#X</	.	.
.	.	8C</	.	.
.	.	8BB</J	.	.
!!LO:LB:g=original
=191	=191	=191	=191	=191
*xywh-19:429,1934,2320,459	*	*xywh-19:429,1934,2320,459	*	*
4AA 4AAA'>\	.	4AA</)	.	.
4EE'\	.	4r	.	.
4AA 4AAA'\	.	4r	.	.
=192	=192	=192	=192	=192
!	!	!	!	!LO:DY:a
4EE'/	.	(>[2.g#X [2.fn [2.dn [2.B/	.	sf
!	!	!LO:TX:b:t=cres_cen_do:problem=dynamics with extention lines	!	!LO:HP:t=cre_scen_do
4AA 4AAA'/	.	.	.	<
4EE'/	.	.	.	.
=193	=193	=193	=193	=193
4AA 4AAA/	.	2.g#] 2.f] 2.d] 2.B/]	.	.
4r	.	.	.	.
4r	.	.	.	.
=194	=194	=194	=194	=194
2.r	.	2.a 2.f 2.d 2.A/	.	.
=195	=195	=195	=195	=195
4AA 4AAA'/	.	4b 4f 4d 4G#X/)	.	[
4EE'/	.	4r	.	.
4AA 4AAA'/	.	4r	.	.
=196	=196	=196	=196	=196
!	!	!LO:TX:b:i:t=molto	!	!LO:DY:a
4EE'/	.	(>[2.b [2.g#X [2.f [2.d/	.	sf
4AA 4AAA'/	.	.	.	.
4EE'/	.	.	.	.
=197	=197	=197	=197	=197
4AA 4AAA'/	.	2.b] 2.g#] 2.f] 2.d/]	.	.
4r	.	.	.	.
4r	.	.	.	.
=198	=198	=198	=198	=198
2.r	.	2.cc 2.g#X 2.f 2.c/	.	.
!!LO:LB:g=original
=199	=199	=199	=199	=199
*xywh-19:425,2352,2305,451	*	*xywh-19:425,2352,2305,451	*	*
4AA 4AAA'/	.	4dd 4g#X 4f 4B/)	.	.
4EE'/	.	4r	.	.
4AA 4AAA'/	.	4r	.	.
=200	=200	=200	=200	=200
4EE'/	.	([2.ff [2.g#X [2.f^\	.	.
4AA 4AAA'/	.	.	.	.
4EE'/	.	.	.	.
=201	=201	=201	=201	=201
4AA 4AAA'/	.	2.ff] 2.g#_ 2.f\]	.	.
4EE'/	.	.	.	.
4AA 4AAA'/	.	.	.	.
=202	=202	=202	=202	=202
4EE'/	.	2.ee 2.g#X_> 2.e/	.	>
4AA 4AAA'/	.	.	.	.
4EE'/	.	.	.	.
=203	=203	=203	=203	=203
4AA 4AAA'/	.	2.dd#X 2.g#] 2.d#X/)	.	]
4EE'/	.	.	.	.
4AA 4AAA'/	.	.	.	.
=204	=204	=204	=204	=204
!	!	!	!	!LO:HP:t=dimin.
4EE'/	.	(>2.ddn [>2.g#X 2.dn^>/	.	>
4AA 4AAA'/	.	.	.	.
4EE'/	.	.	.	.
=205	=205	=205	=205	=205
4AA 4AAA'/	.	2.cc 2.g#_> 2.c/	.	.
4EE'/	.	.	.	.
4AA 4AAA'/	.	.	.	.
=206	=206	=206	=206	=206
4EE'/	.	2.b 2.g#] 2.B/	.	.
4AA 4AAA'/	.	.	.	.
4EE'/	.	.	.	.
!!LO:LB:g=original
=207	=207	=207	=207	=207
*xywh-19:423,2803,2299,447	*	*xywh-19:423,2803,2299,447	*	*
4AA 4AAA'/	.	4cc 4c/)	.	.
4EE'/	.	4r	.	.
4AA 4AAA'/	.	4r	.	.
=208	=208	=208	=208	=208
4EE/	.	(8dd\L	.	pp
.	.	8aa\	.	.
4r	.	8gg#X\	.	.
.	.	8ff\	.	.
4r	.	8dd\	.	.
.	.	8b\J	.	.
=209	=209	=209	=209	=209
4AA 4AAA'/	.	4g#X'/)	.	.
4EE'/	.	4r	.	.
4AA 4AAA'/	.	4d'/	.	.
=210	=210	=210	=210	=210
*	*	*^	*	*
*	*	*	*xywh-19:423,2803,2299,447	*	*
4EE/	.	2.g#X/	(>4f\	.	>
4r	.	.	4e\)	.	]
4r	.	.	4d'>\	.	.
*	*	*v	*v	*	*
=211	=211	=211	=211	=211
4AA 4AAA'/	.	4a 4c/	.	.
4EE'/	.	4r	.	.
4AA 4AAA'/	.	4r	.	.
=212	=212	=212	=212	=212
4EE/	.	(8d/L	.	pp
.	.	8a/	.	.
4r	.	8g#X/	.	.
.	.	8f/	.	.
4r	.	8d/	.	.
.	.	8B/J	.	.
=213	=213	=213	=213	=213
4AA 4AAA'/	.	4G#X'/)	.	.
4EE'/	.	4r	.	.
*	*	*clefF4	*	*
4AA 4AAA'/	.	4D'\	.	.
=214	=214	=214	=214	=214
*	*	*^	*	*
*	*	*	*xywh-19:423,2803,2299,447	*	*
4EE/	.	2.G#X/	(>4F'>\	.	>
4r	.	.	4E'>\)	.	]
4r	.	.	4D'>\	.	.
*	*	*v	*v	*	*
!!LO:LB:g=original
=215	=215	=215	=215	=215
*xywh-19:383,3190,2353,476	*	*xywh-19:383,3190,2353,476	*	*
!	!	!LO:TXLt=P:problem=koniec łuku, bez początku	!	!
4AA 4AAA/	.	4A 4C\	.	.
4r	.	4r	.	.
4r	.	4r	.	.
*	*	*clefG2	*	*
=216	=216	=216	=216	=216
4B 4E\	.	4ee 4g#X 4e/	.	.
4r	.	4r	.	.
4r	.	4r	.	.
*clefG2	*	*	*	*
=217	=217	=217	=217	=217
4e 4A/	.	4aa 4cc 4a\	.	.
4r	.	4r	.	.
4r	.	4r	.	.
=218	=218	=218	=218	=218
4b 4e/	.	4eee 4gg#X 4ee\	.	.
4r	.	4r	.	.
4r	.	4r	.	.
=219	=219	=219	=219	=219
4ee 4a\	.	4aaa 4ccc 4aa\	.	.
4r	.	4r	.	.
4r	.	4r	.	.
=220	=220	=220	=220	=220
2.r	.	2.r	.	.
*clefF4	*	*	*	*
=221	=221	=221	=221	=221
4E 4EE/	.	4d/	.	ppp
4ryy	.	4r	.	.
4ryy	.	4r	.	.
=222	=222	=222	=222	=222
2.r	.	2.r	.	.
=223	=223	=223	=223	=223
4AA 4AAA/	.	4A/	.	.
4r	.	4r	.	.
4r	.	4r	.	.
=224	=224	=224	=224	=224
2.r	.	2.r	.	.
==	==	==	==	==
*-	*-	*-	*-	*-
!!!system-decoration: {(s1,s2)}
!!!RDF**kern: > = above
!!!RDF**kern: < = below
!!!ENC: Andrzej Gręziak
!!!END: 2022-03-09
!!!ENC: Marta Lawrence
!!!END: 2022-03-15
!!!ENC-iiif: Antoni Szymański
!!!END-iiif: 2022-08-19
!!!IIIF: https://polona.pl/iiif/item/ODQ3MjQzNDE/manifest.json
!!!YEC: Copyright 2022 Narodowy Instytut Fryderyka Chopina (https://polishscores.org)
!!!YEM: Licence CC BY 4.0 (https://creativecommons.org/licenses/by/4.0)
